X: 112
T: Frog on a Lilly Pad
C:Bill Monroe
B: canberra pickers and fiddlers
B: old time tunes update
B: tunes
M:4/4
L:1/8
Q: 1/4=100
K:C
V:1 
%transcribed by Jim Kendrick
%402
(3G,A,B, ||"C"C2 cc AG E2 | [E2c2][E2c2]-[E2c2] (3G,A,B, | C2 cc AG E2 | c2 cc EGGG |
"G"G2d2 BG G2 | d2GG G2cc | "C"ccc2 d2^d2 | "G"[e2e2]c2 G2 (3G,A,B,||
"C"C2 cc AG E2 | [E2c2][E2c2]-[E2c2] (3G,A,B, | C2 cc AG E2 | c2 cc EGGG |
"G"G2d2 BG G2 | d2^d2[ee]eee | "C"cAcA GEDB, | C2 [C2E2c2] C2 [C2E2c2]|]
eggg ggga | gggg ^deee | ^deee deee |^deee cccc |
"G"Ggge fddc |BGFE DG,A,B, |"C"CCC2 EFG2 | [E2c2][Ec][Ed] [Ec][Ec][Ec]D |
"F"[A,2F2][A,2F2][A,2F2][A,2F2] | Accd c2ca | "C"ag^de cAGE |
C2E2c2  [CEc][CEc] [C2E2c2] | "G"[G,DBg][G,2D2B2g2][G,DBg] [G,2D2B2g2][G,DBg][G,-D-B-g-] | [G,DBg][G,DBg][G,2D2B2g2] [G,DBg][G,2D2B2g2][CEc] | "C"[C2E2c2][C2E2c2][CEc][CEc][C2E2c2] | [CEc] z4z3 |]
% abcbook-tune_id 67a7d9ec133f7dd900f0b468
% abcbook-tune_composer_id 
% abcbook-link-0 https://www.youtube.com/watch?v=fDLJrRke9Yw
% abcbook-link-title-0 Frog on a Lily Pad
% abcbook-link-start-at-0 20
% abcbook-link-end-at-0 135
% abcbook-boost 0
% abcbook-difficulty 0
% abcbook-tags old time tunes
% abcbook-tablature 
% abcbook-transpose 
% abcbook-tuning GDAE
% abcbook-lastupdated 1739163128182
% abcbook-src-url 
% abcbook-soundfonts 
% abcbook-repeats 1


